X:623
T:Brig, Da
S:Sessions etc
Z:Nigel Gatherer
M:6/8
L:1/8
K:D
ABc | d3  A3  | AFD D3  | d3  A2F | D2g fef |
      d3  A3  | AFD D2F | E2F G2A | B3     :|
ABc | d2e f2d | c2e ecA | d2e f2d | g3  f2g |
      a2f g2e | f2d e2c | d2A FGA | B3    :|]
 
<end>
<start>
